exported-svg/figma.svg

<svg height="24" viewBox="0 0 24 24" width="24" xmlns="http://www.w3.org/2000/svg"><path d="m12 9v.35414425c.1100877-.12485125.2282887-.24318566.3541072-.35414425zm-1 0h-3c-1.65685425 0-3 1.3431458-3 3s1.34314575 3 3 3h3zm-4.93800359-.5c-1.22970877-.68236446-2.06199641-1.99398663-2.06199641-3.5 0-2.209139 1.790861-4 4-4h3.5 3.5c1.4290624 0 2.7495705.76239568 3.4641017 2 .7145312 1.2376043.7145312 2.7623957 0 4-.369845.64059032-.9020404 1.1538651-1.5276063 1.49999889.0212496.01175907.0424188.02372554.0635046.03589944 1.2376043.71453118 2 2.03503927 2 3.46410157 0 1.4290625-.7623957 2.7495706-2 3.4641018s-2.7623957.7145312-4 0c-.3812205-.2200978-.7173517-.4976924-1-.818246v.8541443 3.5c0 2.209139-1.790861 4-4 4s-4-1.790861-4-4c0-1.5060134.83228764-2.8176355 2.06199641-3.5-1.22970877-.6823645-2.06199641-1.9939866-2.06199641-3.5s.83228764-2.81763554 2.06199641-3.5zm1.93800359-.5h3v-6h-3c-1.65685425 0-3 1.34314575-3 3s1.34314575 3 3 3zm0 8c-1.65685425 0-3 1.3431458-3 3s1.34314575 3 3 3 3-1.3431458 3-3v-3zm4-14v6h3c1.0717968 0 2.0621779-.57179676 2.5980763-1.5.5358984-.92820322.5358984-2.07179678 0-3-.5358984-.92820324-1.5262795-1.5-2.5980763-1.5zm0 9.9999999c0 1.0717969.5717967 2.062178 1.5 2.5980764.9282032.5358984 2.0717968.5358984 3 0 .9282033-.5358984 1.5-1.5262795 1.5-2.5980764 0-1.0717967-.5717968-2.06217779-1.5-2.59807617-.9282032-.5358984-2.0717968-.5358984-3 0-.9282032.53589838-1.5 1.52627947-1.5 2.59807617z"/></svg>

<?xml version="1.0" encoding="UTF-8"?>
<svg width="24px" height="24px" viewBox="0 0 24 24" version="1.1" xmlns="http://www.w3.org/2000/svg" xmlns:xlink="http://www.w3.org/1999/xlink">
    <!-- Generator: Sketch 55.2 (78181) - https://sketchapp.com -->
    <title>figma</title>
    <desc>Created with Sketch.</desc>
    <g id="figma" stroke="none" stroke-width="1" fill="none" fill-rule="evenodd">
        <path d="M12,9 L12,9.35414425 C12.1100877,9.229293 12.2282887,9.11095859 12.3541072,9 L12,9 Z M11,9 L8,9 C6.34314575,9 5,10.3431458 5,12 C5,13.6568542 6.34314575,15 8,15 L11,15 L11,9 Z M6.06199641,8.5 C4.83228764,7.81763554 4,6.50601337 4,5 C4,2.790861 5.790861,1 8,1 L11.5,1 L15,1 C16.4290624,1 17.7495705,1.76239568 18.4641017,3 C19.1786329,4.2376043 19.1786329,5.7623957 18.4641017,7 C18.0942567,7.64059032 17.5620613,8.1538651 16.9364954,8.49999889 C16.957745,8.51175796 16.9789142,8.52372443 17,8.53589833 C18.2376043,9.25042951 19,10.5709376 19,11.9999999 C19,13.4290624 18.2376043,14.7495705 17,15.4641017 C15.7623957,16.1786329 14.2376043,16.1786329 13,15.4641017 C12.6187795,15.2440039 12.2826483,14.9664093 12,14.6458557 L12,15.5 L12,19 C12,21.209139 10.209139,23 8,23 C5.790861,23 4,21.209139 4,19 C4,17.4939866 4.83228764,16.1823645 6.06199641,15.5 C4.83228764,14.8176355 4,13.5060134 4,12 C4,10.4939866 4.83228764,9.18236446 6.06199641,8.5 Z M8,8 L11,8 L11,2 L8,2 C6.34314575,2 5,3.34314575 5,5 C5,6.65685425 6.34314575,8 8,8 Z M8,16 C6.34314575,16 5,17.3431458 5,19 C5,20.6568542 6.34314575,22 8,22 C9.65685425,22 11,20.6568542 11,19 L11,16 L8,16 Z M12,2 L12,8 L15,8 C16.0717968,8 17.0621779,7.42820324 17.5980763,6.5 C18.1339747,5.57179678 18.1339747,4.42820322 17.5980763,3.5 C17.0621779,2.57179676 16.0717968,2 15,2 L12,2 Z M12,11.9999999 C12,13.0717968 12.5717967,14.0621779 13.5,14.5980763 C14.4282032,15.1339747 15.5717968,15.1339747 16.5,14.5980763 C17.4282033,14.0621779 18,13.0717968 18,11.9999999 C18,10.9282032 17.4282032,9.93782211 16.5,9.40192373 C15.5717968,8.86602533 14.4282032,8.86602533 13.5,9.40192373 C12.5717968,9.93782211 12,10.9282032 12,11.9999999 Z" id="Combined-Shape" fill="#000000" fill-rule="nonzero"></path>
    </g>
</svg>
